images-src/boss_rabbit_brollychuting_01.svg

<?xml version="1.0" encoding="UTF-8" standalone="no"?>
<!-- Created with Inkscape (http://www.inkscape.org/) -->

<svg
   xmlns:dc="http://purl.org/dc/elements/1.1/"
   xmlns:cc="http://creativecommons.org/ns#"
   xmlns:rdf="http://www.w3.org/1999/02/22-rdf-syntax-ns#"
   xmlns:svg="http://www.w3.org/2000/svg"
   xmlns="http://www.w3.org/2000/svg"
   xmlns:sodipodi="http://sodipodi.sourceforge.net/DTD/sodipodi-0.dtd"
   xmlns:inkscape="http://www.inkscape.org/namespaces/inkscape"
   width="32"
   height="40"
   id="svg2"
   version="1.1"
   inkscape:version="0.48.5 r10040"
   sodipodi:docname="rabbit_brollychuting_05.svg">
  <defs
     id="defs4" />
  <sodipodi:namedview
     id="base"
     pagecolor="#ffffff"
     bordercolor="#666666"
     borderopacity="1.0"
     inkscape:pageopacity="0.0"
     inkscape:pageshadow="2"
     inkscape:zoom="23.688078"
     inkscape:cx="15.827706"
     inkscape:cy="18.001362"
     inkscape:document-units="px"
     inkscape:current-layer="layer1"
     showgrid="false"
     inkscape:window-width="1920"
     inkscape:window-height="1014"
     inkscape:window-x="0"
     inkscape:window-y="27"
     inkscape:window-maximized="1" />
  <metadata
     id="metadata7">
    <rdf:RDF>
      <cc:Work
         rdf:about="">
        <dc:format>image/svg+xml</dc:format>
        <dc:type
           rdf:resource="http://purl.org/dc/dcmitype/StillImage" />
        <dc:title></dc:title>
      </cc:Work>
    </rdf:RDF>
  </metadata>
  <g
     inkscape:label="Layer 1"
     inkscape:groupmode="layer"
     id="layer1"
     transform="translate(0,-1012.3622)">
    <path
       sodipodi:type="arc"
       style="fill:#ffffff;fill-opacity:1;stroke:#000000;stroke-opacity:1"
       id="path3768"
       sodipodi:cx="13.262222"
       sodipodi:cy="21.297777"
       sodipodi:rx="5.3688889"
       sodipodi:ry="8.6400003"
       d="m 18.631111,21.297777 a 5.3688889,8.6400003 0 1 1 -10.7377776,0 5.3688889,8.6400003 0 1 1 10.7377776,0 z"
       transform="matrix(0.98634677,0.16468166,-0.16468166,0.98634677,3.970834,1017.2423)" />
    <g
       id="g3039"
       transform="matrix(0.96786772,0.25145993,-0.25145993,0.96786772,261.70538,30.183387)">
      <g
         transform="matrix(0.96330591,0.26840589,-0.26840589,0.96330591,280.5714,34.459474)"
         id="g3035">
        <path
           transform="matrix(0.44261039,-0.17941325,0.41892018,1.0334712,0.50638124,1021.0227)"
           sodipodi:type="arc"
           style="fill:#ffffff;fill-opacity:1;stroke:#000000;stroke-opacity:1"
           id="path3766-3"
           sodipodi:cx="17.528889"
           sodipodi:cy="29.475555"
           sodipodi:rx="3.3777778"
           sodipodi:ry="1.1733333"
           d="m 20.906667,29.475555 c 0,0.648015 -1.512283,1.173334 -3.377778,1.173334 -1.865495,0 -3.377778,-0.525319 -3.377778,-1.173334 0,-0.648014 1.512283,-1.173333 3.377778,-1.173333 1.865495,0 3.377778,0.525319 3.377778,1.173333 z" />
        <path
           sodipodi:type="arc"
           style="fill:#ffffff;fill-opacity:1;stroke:#000000;stroke-opacity:1"
           id="path3796-0"
           sodipodi:cx="13.795555"
           sodipodi:cy="27.946667"
           sodipodi:rx="3.6977777"
           sodipodi:ry="2.2755556"
           d="m 17.493333,27.946667 c 0,1.256754 -1.655552,2.275555 -3.697778,2.275555 -2.042226,0 -3.697778,-1.018801 -3.697778,-2.275555 0,-1.256755 1.655552,-2.275556 3.697778,-2.275556 2.042226,0 3.697778,1.018801 3.697778,2.275556 z"
           transform="matrix(0.4240108,-0.10837937,0.26483173,1.0360968,5.7040542,1018.3586)" />
      </g>
      <g
         transform="matrix(0.97652348,-0.215411,0.215411,0.97652348,-224.33395,27.466908)"
         id="g3031">
        <path
           sodipodi:type="arc"
           style="fill:#ffffff;fill-opacity:1;stroke:#000000;stroke-opacity:1"
           id="path3766"
           sodipodi:cx="17.528889"
           sodipodi:cy="29.475555"
           sodipodi:rx="3.3777778"
           sodipodi:ry="1.1733333"
           d="m 20.906667,29.475555 c 0,0.648015 -1.512283,1.173334 -3.377778,1.173334 -1.865495,0 -3.377778,-0.525319 -3.377778,-1.173334 0,-0.648014 1.512283,-1.173333 3.377778,-1.173333 1.865495,0 3.377778,0.525319 3.377778,1.173333 z"
           transform="matrix(0.4399144,0.13607438,-0.29371224,0.94954129,9.1032065,1018.62)" />
        <path
           sodipodi:type="arc"
           style="fill:#ffffff;fill-opacity:1;stroke:#000000;stroke-opacity:1"
           id="path3796"
           sodipodi:cx="13.795555"
           sodipodi:cy="27.946667"
           sodipodi:rx="3.6977777"
           sodipodi:ry="2.2755556"
           d="m 17.493333,27.946667 c 0,1.256754 -1.655552,2.275555 -3.697778,2.275555 -2.042226,0 -3.697778,-1.018801 -3.697778,-2.275555 0,-1.256755 1.655552,-2.275556 3.697778,-2.275556 2.042226,0 3.697778,1.018801 3.697778,2.275556 z"
           transform="matrix(0.37542555,0.11838657,-0.3447491,1.0932627,14.042726,1013.9406)" />
      </g>
    </g>
    <g
       id="g3024"
       transform="matrix(0.97588407,0.21828952,-0.21828952,0.97588407,224.90089,21.767279)">
      <path
         transform="matrix(0.84832571,0.28803105,-0.35470015,0.94842566,4.0647532,1016.567)"
         d="m 13.582223,7.6088891 c 0,0.9032924 -1.512283,1.6355555 -3.377778,1.6355555 -1.8654953,0 -3.3777779,-0.7322631 -3.3777779,-1.6355555 0,-0.9032924 1.5122826,-1.6355555 3.3777779,-1.6355555 1.865495,0 3.377778,0.7322631 3.377778,1.6355555 z"
         sodipodi:ry="1.6355555"
         sodipodi:rx="3.3777778"
         sodipodi:cy="7.6088891"
         sodipodi:cx="10.204445"
         id="path3772"
         style="fill:#ffffff;fill-opacity:1;stroke:#000000;stroke-opacity:1"
         sodipodi:type="arc" />
      <path
         transform="matrix(0.77053203,0.12335422,-0.06851811,0.95498434,2.3411928,1017.9455)"
         d="m 21.617778,9.8488894 c 0,2.1796836 -2.164952,3.9466666 -4.835555,3.9466666 -2.670604,0 -4.835556,-1.766983 -4.835556,-3.9466666 0,-2.1796839 2.164952,-3.9466668 4.835556,-3.9466668 2.670603,0 4.835555,1.7669829 4.835555,3.9466668 z"
         sodipodi:ry="3.9466667"
         sodipodi:rx="4.8355556"
         sodipodi:cy="9.8488894"
         sodipodi:cx="16.782223"
         id="path3770"
         style="fill:#ffffff;fill-opacity:1;stroke:#000000;stroke-opacity:1"
         sodipodi:type="arc" />
      <path
         transform="matrix(-0.79768185,0.50010796,-0.46368386,-0.75883595,30.851871,1025.9582)"
         d="m 13.582223,7.6088891 c 0,0.9032924 -1.512283,1.6355555 -3.377778,1.6355555 -1.8654953,0 -3.3777779,-0.7322631 -3.3777779,-1.6355555 0,-0.9032924 1.5122826,-1.6355555 3.3777779,-1.6355555 1.865495,0 3.377778,0.7322631 3.377778,1.6355555 z"
         sodipodi:ry="1.6355555"
         sodipodi:rx="3.3777778"
         sodipodi:cy="7.6088891"
         sodipodi:cx="10.204445"
         id="path3772-7"
         style="fill:#4d4d4b;fill-opacity:1;stroke:#000000;stroke-opacity:1"
         sodipodi:type="arc" />
      <path
         transform="matrix(1.1870228,-0.07665294,0.07665294,1.1870228,-11.745573,1019.3872)"
         d="m 20.479999,9.7066669 c 0,0.2160047 -0.175106,0.3911111 -0.391111,0.3911111 -0.216005,0 -0.391111,-0.1751064 -0.391111,-0.3911111 0,-0.2160047 0.175106,-0.3911111 0.391111,-0.3911111 0.216005,0 0.391111,0.1751064 0.391111,0.3911111 z"
         sodipodi:ry="0.39111111"
         sodipodi:rx="0.39111111"
         sodipodi:cy="9.7066669"
         sodipodi:cx="20.088888"
         id="path3794"
         style="fill:#ffffff;fill-opacity:1;stroke:#000000;stroke-opacity:1"
         sodipodi:type="arc" />
      <path
         transform="matrix(1.2974769,-0.0837856,0.06987435,1.0820517,-10.60145,1020.4248)"
         d="m 20.479999,9.7066669 c 0,0.2160047 -0.175106,0.3911111 -0.391111,0.3911111 -0.216005,0 -0.391111,-0.1751064 -0.391111,-0.3911111 0,-0.2160047 0.175106,-0.3911111 0.391111,-0.3911111 0.216005,0 0.391111,0.1751064 0.391111,0.3911111 z"
         sodipodi:ry="0.39111111"
         sodipodi:rx="0.39111111"
         sodipodi:cy="9.7066669"
         sodipodi:cx="20.088888"
         id="path3794-0"
         style="fill:#ffffff;fill-opacity:1;stroke:#000000;stroke-opacity:1"
         sodipodi:type="arc" />
    </g>
    <g
       transform="matrix(1.4828657,-0.11345588,0.11746362,1.5352465,-129.87564,-559.99499)"
       id="g7472">
      <path
         sodipodi:nodetypes="ccccc"
         transform="translate(0,1020.3622)"
         inkscape:connector-curvature="0"
         id="path7275"
         d="m 16.169213,7.6333725 -0.07521,11.0176265 c -0.36831,0.906334 -1.3803,0.894981 -1.767332,-0.112804 l 0,-0.0376 0,0"
         style="fill:none;stroke:#000000;stroke-width:0.60000002;stroke-linecap:round;stroke-linejoin:miter;stroke-miterlimit:4;stroke-opacity:1;stroke-dasharray:none;marker-end:none" />
      <path
         sodipodi:end="6.3479538"
         sodipodi:start="3.100224"
         transform="translate(5.1139836,1025.8522)"
         d="M 4.1797043,7.5887889 C 4.0251065,4.9224529 6.9275515,2.6714913 10.662497,2.5611256 c 3.734945,-0.1103657 6.888043,1.9616577 7.042641,4.6279938 0.0099,0.1708441 0.0071,0.3419431 -0.0084,0.5125749 L 10.942421,7.3889542 z"
         sodipodi:ry="4.8319626"
         sodipodi:rx="6.7685075"
         sodipodi:cy="7.3889542"
         sodipodi:cx="10.942421"
         id="path7468"
         style="fill:#00c800;fill-opacity:1;stroke:#000000;stroke-width:0.5;stroke-linecap:round;stroke-miterlimit:4;stroke-opacity:1;stroke-dasharray:none"
         sodipodi:type="arc" />
    </g>
    <path
       sodipodi:type="arc"
       style="fill:#ffffff;fill-opacity:1;stroke:#000000;stroke-opacity:1"
       id="path3792-5"
       sodipodi:cx="19.768888"
       sodipodi:cy="22.151112"
       sodipodi:rx="1.4222223"
       sodipodi:ry="3.8044446"
       d="m 21.191111,22.151112 a 1.4222223,3.8044446 0 1 1 -2.844445,0 1.4222223,3.8044446 0 1 1 2.844445,0 z"
       transform="matrix(-0.70278732,0.7114,-0.7114,-0.70278732,47.086556,1036.7266)" />
    <path
       sodipodi:type="arc"
       style="fill:#ffffff;fill-opacity:1;stroke:#000000;stroke-opacity:1"
       id="path3792"
       sodipodi:cx="19.768888"
       sodipodi:cy="22.151112"
       sodipodi:rx="1.4222223"
       sodipodi:ry="3.8044446"
       d="m 21.191111,22.151112 a 1.4222223,3.8044446 0 1 1 -2.844445,0 1.4222223,3.8044446 0 1 1 2.844445,0 z"
       transform="matrix(-0.6803998,-0.73284114,0.73284114,-0.6803998,8.2455599,1064.278)" />
  </g>
</svg>

<?xml version="1.0" encoding="UTF-8" standalone="no"?>
<!-- Created with Inkscape (http://www.inkscape.org/) -->

<svg
   xmlns:dc="http://purl.org/dc/elements/1.1/"
   xmlns:cc="http://creativecommons.org/ns#"
   xmlns:rdf="http://www.w3.org/1999/02/22-rdf-syntax-ns#"
   xmlns:svg="http://www.w3.org/2000/svg"
   xmlns="http://www.w3.org/2000/svg"
   xmlns:sodipodi="http://sodipodi.sourceforge.net/DTD/sodipodi-0.dtd"
   xmlns:inkscape="http://www.inkscape.org/namespaces/inkscape"
   width="32"
   height="40"
   id="svg2"
   version="1.1"
   inkscape:version="0.91 r13725"
   sodipodi:docname="boss_rabbit_brollychuting_01.svg">
  <defs
     id="defs4" />
  <sodipodi:namedview
     id="base"
     pagecolor="#ffffff"
     bordercolor="#666666"
     borderopacity="1.0"
     inkscape:pageopacity="0.0"
     inkscape:pageshadow="2"
     inkscape:zoom="8.3750003"
     inkscape:cx="-3.8355789"
     inkscape:cy="8.2957187"
     inkscape:document-units="px"
     inkscape:current-layer="layer1"
     showgrid="false"
     inkscape:window-width="1366"
     inkscape:window-height="717"
     inkscape:window-x="0"
     inkscape:window-y="0"
     inkscape:window-maximized="1" />
  <metadata
     id="metadata7">
    <rdf:RDF>
      <cc:Work
         rdf:about="">
        <dc:format>image/svg+xml</dc:format>
        <dc:type
           rdf:resource="http://purl.org/dc/dcmitype/StillImage" />
        <dc:title />
      </cc:Work>
    </rdf:RDF>
  </metadata>
  <g
     inkscape:label="Layer 1"
     inkscape:groupmode="layer"
     id="layer1"
     transform="translate(0,-1012.3622)">
    <path
       sodipodi:type="arc"
       style="fill:#000000;fill-opacity:1;stroke:#000000;stroke-opacity:1"
       id="path3768"
       sodipodi:cx="13.262222"
       sodipodi:cy="21.297777"
       sodipodi:rx="5.3688889"
       sodipodi:ry="8.6400003"
       d="m 18.631111,21.297777 a 5.3688889,8.6400003 0 0 1 -5.368889,8.640001 5.3688889,8.6400003 0 0 1 -5.3688886,-8.640001 5.3688889,8.6400003 0 0 1 5.3688886,-8.64 5.3688889,8.6400003 0 0 1 5.368889,8.64 z"
       transform="matrix(0.98634677,0.16468166,-0.16468166,0.98634677,3.970834,1017.2423)" />
    <g
       id="g3039"
       transform="matrix(0.96786772,0.25145993,-0.25145993,0.96786772,261.70538,30.183387)">
      <g
         transform="matrix(0.96330591,0.26840589,-0.26840589,0.96330591,280.5714,34.459474)"
         id="g3035">
        <path
           transform="matrix(0.44261039,-0.17941325,0.41892018,1.0334712,0.50638124,1021.0227)"
           sodipodi:type="arc"
           style="fill:#ffffff;fill-opacity:1;stroke:#000000;stroke-opacity:1"
           id="path3766-3"
           sodipodi:cx="17.528889"
           sodipodi:cy="29.475555"
           sodipodi:rx="3.3777778"
           sodipodi:ry="1.1733333"
           d="m 20.906667,29.475555 a 3.3777778,1.1733333 0 0 1 -3.377778,1.173334 3.3777778,1.1733333 0 0 1 -3.377778,-1.173334 3.3777778,1.1733333 0 0 1 3.377778,-1.173333 3.3777778,1.1733333 0 0 1 3.377778,1.173333 z" />
        <path
           sodipodi:type="arc"
           style="fill:#ffffff;fill-opacity:1;stroke:#000000;stroke-opacity:1"
           id="path3796-0"
           sodipodi:cx="13.795555"
           sodipodi:cy="27.946667"
           sodipodi:rx="3.6977777"
           sodipodi:ry="2.2755556"
           d="m 17.493333,27.946667 a 3.6977777,2.2755556 0 0 1 -3.697778,2.275555 3.6977777,2.2755556 0 0 1 -3.697778,-2.275555 3.6977777,2.2755556 0 0 1 3.697778,-2.275556 3.6977777,2.2755556 0 0 1 3.697778,2.275556 z"
           transform="matrix(0.4240108,-0.10837937,0.26483173,1.0360968,5.7040542,1018.3586)" />
      </g>
      <g
         transform="matrix(0.97652348,-0.215411,0.215411,0.97652348,-224.33395,27.466908)"
         id="g3031">
        <path
           sodipodi:type="arc"
           style="fill:#ffffff;fill-opacity:1;stroke:#000000;stroke-opacity:1"
           id="path3766"
           sodipodi:cx="17.528889"
           sodipodi:cy="29.475555"
           sodipodi:rx="3.3777778"
           sodipodi:ry="1.1733333"
           d="m 20.906667,29.475555 a 3.3777778,1.1733333 0 0 1 -3.377778,1.173334 3.3777778,1.1733333 0 0 1 -3.377778,-1.173334 3.3777778,1.1733333 0 0 1 3.377778,-1.173333 3.3777778,1.1733333 0 0 1 3.377778,1.173333 z"
           transform="matrix(0.4399144,0.13607438,-0.29371224,0.94954129,9.1032065,1018.62)" />
        <path
           sodipodi:type="arc"
           style="fill:#ffffff;fill-opacity:1;stroke:#000000;stroke-opacity:1"
           id="path3796"
           sodipodi:cx="13.795555"
           sodipodi:cy="27.946667"
           sodipodi:rx="3.6977777"
           sodipodi:ry="2.2755556"
           d="m 17.493333,27.946667 a 3.6977777,2.2755556 0 0 1 -3.697778,2.275555 3.6977777,2.2755556 0 0 1 -3.697778,-2.275555 3.6977777,2.2755556 0 0 1 3.697778,-2.275556 3.6977777,2.2755556 0 0 1 3.697778,2.275556 z"
           transform="matrix(0.37542555,0.11838657,-0.3447491,1.0932627,14.042726,1013.9406)" />
      </g>
    </g>
    <g
       id="g3024"
       transform="matrix(0.97588407,0.21828952,-0.21828952,0.97588407,224.90089,21.767279)">
      <path
         transform="matrix(0.84832571,0.28803105,-0.35470015,0.94842566,4.0647532,1016.567)"
         d="M 13.582223,7.6088891 A 3.3777778,1.6355555 0 0 1 10.204445,9.2444446 3.3777778,1.6355555 0 0 1 6.8266671,7.6088891 3.3777778,1.6355555 0 0 1 10.204445,5.9733336 3.3777778,1.6355555 0 0 1 13.582223,7.6088891 Z"
         sodipodi:ry="1.6355555"
         sodipodi:rx="3.3777778"
         sodipodi:cy="7.6088891"
         sodipodi:cx="10.204445"
         id="path3772"
         style="fill:#ffffff;fill-opacity:1;stroke:#000000;stroke-opacity:1"
         sodipodi:type="arc" />
      <path
         transform="matrix(0.77053203,0.12335422,-0.06851811,0.95498434,2.3411928,1017.9455)"
         d="M 21.617778,9.8488894 A 4.8355556,3.9466667 0 0 1 16.782223,13.795556 4.8355556,3.9466667 0 0 1 11.946667,9.8488894 4.8355556,3.9466667 0 0 1 16.782223,5.9022226 4.8355556,3.9466667 0 0 1 21.617778,9.8488894 Z"
         sodipodi:ry="3.9466667"
         sodipodi:rx="4.8355556"
         sodipodi:cy="9.8488894"
         sodipodi:cx="16.782223"
         id="path3770"
         style="fill:#ffffff;fill-opacity:1;stroke:#000000;stroke-opacity:1"
         sodipodi:type="arc" />
      <path
         transform="matrix(-0.79768185,0.50010796,-0.46368386,-0.75883595,30.851871,1025.9582)"
         d="M 13.582223,7.6088891 A 3.3777778,1.6355555 0 0 1 10.204445,9.2444446 3.3777778,1.6355555 0 0 1 6.8266671,7.6088891 3.3777778,1.6355555 0 0 1 10.204445,5.9733336 3.3777778,1.6355555 0 0 1 13.582223,7.6088891 Z"
         sodipodi:ry="1.6355555"
         sodipodi:rx="3.3777778"
         sodipodi:cy="7.6088891"
         sodipodi:cx="10.204445"
         id="path3772-7"
         style="fill:#4d4d4b;fill-opacity:1;stroke:#000000;stroke-opacity:1"
         sodipodi:type="arc" />
      <path
         transform="matrix(1.1870228,-0.07665294,0.07665294,1.1870228,-11.745573,1019.3872)"
         d="M 20.479999,9.7066669 A 0.39111111,0.39111111 0 0 1 20.088888,10.097778 0.39111111,0.39111111 0 0 1 19.697777,9.7066669 0.39111111,0.39111111 0 0 1 20.088888,9.3155558 0.39111111,0.39111111 0 0 1 20.479999,9.7066669 Z"
         sodipodi:ry="0.39111111"
         sodipodi:rx="0.39111111"
         sodipodi:cy="9.7066669"
         sodipodi:cx="20.088888"
         id="path3794"
         style="fill:#ffffff;fill-opacity:1;stroke:#000000;stroke-opacity:1"
         sodipodi:type="arc" />
      <path
         transform="matrix(1.2974769,-0.0837856,0.06987435,1.0820517,-10.60145,1020.4248)"
         d="M 20.479999,9.7066669 A 0.39111111,0.39111111 0 0 1 20.088888,10.097778 0.39111111,0.39111111 0 0 1 19.697777,9.7066669 0.39111111,0.39111111 0 0 1 20.088888,9.3155558 0.39111111,0.39111111 0 0 1 20.479999,9.7066669 Z"
         sodipodi:ry="0.39111111"
         sodipodi:rx="0.39111111"
         sodipodi:cy="9.7066669"
         sodipodi:cx="20.088888"
         id="path3794-0"
         style="fill:#ffffff;fill-opacity:1;stroke:#000000;stroke-opacity:1"
         sodipodi:type="arc" />
    </g>
    <g
       transform="matrix(1.4828657,-0.11345588,0.11746362,1.5352465,-129.87564,-559.99499)"
       id="g7472">
      <path
         sodipodi:nodetypes="ccccc"
         transform="translate(0,1020.3622)"
         inkscape:connector-curvature="0"
         id="path7275"
         d="m 16.169213,7.6333725 -0.07521,11.0176265 c -0.36831,0.906334 -1.3803,0.894981 -1.767332,-0.112804 l 0,-0.0376 0,0"
         style="fill:none;stroke:#000000;stroke-width:0.60000002;stroke-linecap:round;stroke-linejoin:miter;stroke-miterlimit:4;stroke-opacity:1;stroke-dasharray:none;marker-end:none" />
      <path
         sodipodi:end="6.3479538"
         sodipodi:start="3.100224"
         transform="translate(5.1139836,1025.8522)"
         d="M 4.1797043,7.5887889 A 6.7685075,4.8319626 0 0 1 7.5231189,3.2188976 6.7685075,4.8319626 0 0 1 14.497461,3.277153 6.7685075,4.8319626 0 0 1 17.696737,7.7016943 L 10.942421,7.3889542 Z"
         sodipodi:ry="4.8319626"
         sodipodi:rx="6.7685075"
         sodipodi:cy="7.3889542"
         sodipodi:cx="10.942421"
         id="path7468"
         style="fill:#00c800;fill-opacity:1;stroke:#000000;stroke-width:0.5;stroke-linecap:round;stroke-miterlimit:4;stroke-opacity:1;stroke-dasharray:none"
         sodipodi:type="arc" />
    </g>
    <path
       sodipodi:type="arc"
       style="fill:#ffffff;fill-opacity:1;stroke:#000000;stroke-opacity:1"
       id="path3792-5"
       sodipodi:cx="19.768888"
       sodipodi:cy="22.151112"
       sodipodi:rx="1.4222223"
       sodipodi:ry="3.8044446"
       d="m 21.191111,22.151112 a 1.4222223,3.8044446 0 0 1 -1.422223,3.804444 1.4222223,3.8044446 0 0 1 -1.422222,-3.804444 1.4222223,3.8044446 0 0 1 1.422222,-3.804445 1.4222223,3.8044446 0 0 1 1.422223,3.804445 z"
       transform="matrix(-0.70278732,0.7114,-0.7114,-0.70278732,47.086556,1036.7266)" />
    <path
       sodipodi:type="arc"
       style="fill:#ffffff;fill-opacity:1;stroke:#000000;stroke-opacity:1"
       id="path3792"
       sodipodi:cx="19.768888"
       sodipodi:cy="22.151112"
       sodipodi:rx="1.4222223"
       sodipodi:ry="3.8044446"
       d="m 21.191111,22.151112 a 1.4222223,3.8044446 0 0 1 -1.422223,3.804444 1.4222223,3.8044446 0 0 1 -1.422222,-3.804444 1.4222223,3.8044446 0 0 1 1.422222,-3.804445 1.4222223,3.8044446 0 0 1 1.422223,3.804445 z"
       transform="matrix(-0.6803998,-0.73284114,0.73284114,-0.6803998,8.2455599,1064.278)" />
  </g>
</svg>
